X: 27709
T: Morning Dew, The
R: reel
M: 4/4
K: Edorian
|:~E3 B BAFA|EDEB ADFA|~E3 B BAFA|BcdB ADFA:|
|:~B2 eB fBeB|~B2 dB AFDA|1 ~B2 eB fBeB|dcdB ADFA:|2 Bdef gfge|dcdB ADFA||
~B2 GB FBEB|~E2 EB AFDA|~B2 GB FBEB|dcdB ADFA|
~B2 GB FBEB|EDEB AFDA|BAGF EFGA|BcdB ADFA||
|:~B2 GB FBEB|~E2 EB AFDA|1 ~B2 GB FBEB|dcdB ADFA:|2 BAGF EFGA|BcdB ADFA||

